packages/core/src/svgs/tokens/mono/WALLET.svg

<svg width="24" height="24" viewBox="0 0 24 24" fill="none" xmlns="http://www.w3.org/2000/svg">
<path d="M18.5005 15L15.5004 11.75L11.0005 15.4999V22L18.5005 15Z" fill="white"/>
<path d="M10.0001 10.5L8.5 8.25L5.75 10.75L6.75 12.5L9.49999 11.5L10.0001 10.5Z" fill="white"/>
<path d="M11.5 7.50001V2L14.5 9L11.5 7.50001Z" fill="white"/>
<path d="M14.4995 9.00024L11.4996 7.50024L5.49951 15.7502L9.49951 20.0003L14.4995 9.00024Z" fill="white"/>
<path d="M15.4995 11.7501V9.5L18.4996 15L15.4995 11.7501Z" fill="white"/>
<path d="M8.5 8.24999L9.49999 4.5L5.75 10.75L8.5 8.24999Z" fill="white"/>
</svg>

<svg xmlns="http://www.w3.org/2000/svg" width="24" height="24" fill="none" viewBox="0 0 24 24">
    <path fill="#fff" d="m18.5 15-3-3.25L11 15.5V22zM10 10.5 8.5 8.25l-2.75 2.5 1 1.75 2.75-1zm1.5-3V2l3 7z"/>
    <path fill="#fff" d="m14.5 9-3-1.5-6 8.25 4 4.25zm1 2.75V9.5l3 5.5zm-7-3.5 1-3.75-3.75 6.25z"/>
</svg>
